X:623
T: WIR WOLLEN ALLE FROEHLICH SEIN
N: E1976
O: Europa, Mitteleuropa, Deutschland
R: geistlich, Fest - Lied, Ostern
M: 3/4
L: 1/4
K: F
F | F2A | c2c | cAB | c2
e | f2d | f2c | cdB | A2
F | G2G | G2A | FG2 | F3 | z2

